X:1
T: Miss Scot's Reel
C:Robert Mackintosh
R:Reel
Q: 232
K:Bb
M:4/4
L:1/8
|:F|DB, DF Bc BF|DF Bd cC CE|FD EG AF Bg|fd cd B1/2B1/2B BF|
DB, DF Bc BF|DF Bd cC CE|FD EG AF Bg|fd cd B1/2B1/2B Bf|
de fB eg fB|ce dB Ac ce|d1/2c1/2d1/2e1/2 fB eg fd|ec fd B1/2B1/2B Bf|
de fB eg fB|ce dB Ac ce|dB Ac BA BF|Gg fd B1/2B1/2B B:|
